public/images/dice/dice4.svg

<?xml version="1.0" encoding="UTF-8" standalone="no"?>
<!-- Generator: Gravit.io -->

<svg
   xmlns:dc="http://purl.org/dc/elements/1.1/"
   xmlns:cc="http://creativecommons.org/ns#"
   xmlns:rdf="http://www.w3.org/1999/02/22-rdf-syntax-ns#"
   xmlns:svg="http://www.w3.org/2000/svg"
   xmlns="http://www.w3.org/2000/svg"
   xmlns:sodipodi="http://sodipodi.sourceforge.net/DTD/sodipodi-0.dtd"
   xmlns:inkscape="http://www.inkscape.org/namespaces/inkscape"
   style="isolation:isolate"
   viewBox="235 164 56 56"
   width="56"
   height="56"
   version="1.1"
   id="svg3900"
   sodipodi:docname="dice4.svg"
   inkscape:version="0.92.2 5c3e80d, 2017-08-06">
  <metadata
     id="metadata3906">
    <rdf:RDF>
      <cc:Work
         rdf:about="">
        <dc:format>image/svg+xml</dc:format>
        <dc:type
           rdf:resource="http://purl.org/dc/dcmitype/StillImage" />
        <dc:title></dc:title>
      </cc:Work>
    </rdf:RDF>
  </metadata>
  <defs
     id="defs3904" />
  <sodipodi:namedview
     pagecolor="#ffffff"
     bordercolor="#666666"
     borderopacity="1"
     objecttolerance="10"
     gridtolerance="10"
     guidetolerance="10"
     inkscape:pageopacity="0"
     inkscape:pageshadow="2"
     inkscape:window-width="640"
     inkscape:window-height="480"
     id="namedview3902"
     showgrid="false"
     inkscape:zoom="2.6222222"
     inkscape:cx="28"
     inkscape:cy="45"
     inkscape:window-x="0"
     inkscape:window-y="0"
     inkscape:window-maximized="0"
     inkscape:current-layer="svg3900" />
  <g
     id="g3898"
     transform="translate(0,-34)">
    <g
       id="g3896">
      <path
         d="m 240.6,198 h 44.8 c 3.091,0 5.6,2.509 5.6,5.6 v 44.8 c 0,3.091 -2.509,5.6 -5.6,5.6 h -44.8 c -3.091,0 -5.6,-2.509 -5.6,-5.6 v -44.8 c 0,-3.091 2.509,-5.6 5.6,-5.6 z"
         style="fill:#ebebeb;stroke:none;stroke-miterlimit:10"
         id="path3884"
         inkscape:connector-curvature="0" />
      <g
         id="g3894">
        <circle
           cx="252.5"
           cy="236"
           r="5"
           id="circle3886"
           style="vector-effect:non-scaling-stroke;fill:#000000" />
        <circle
           cx="273.5"
           cy="236"
           r="5"
           id="circle3888"
           style="vector-effect:non-scaling-stroke;fill:#000000" />
        <circle
           cx="252.5"
           cy="216"
           r="5"
           id="circle3890"
           style="vector-effect:non-scaling-stroke;fill:#000000" />
        <circle
           cx="273.5"
           cy="216"
           r="5"
           id="circle3892"
           style="vector-effect:non-scaling-stroke;fill:#000000" />
      </g>
    </g>
  </g>
</svg>

<?xml version="1.0" standalone="no"?><!-- Generator: Gravit.io --><svg xmlns="http://www.w3.org/2000/svg" xmlns:xlink="http://www.w3.org/1999/xlink" style="isolation:isolate" viewBox="235 164 56 90" width="56" height="90"><g><g><path d="M 240.6 198 L 285.4 198 C 288.491 198 291 200.509 291 203.6 L 291 248.4 C 291 251.491 288.491 254 285.4 254 L 240.6 254 C 237.509 254 235 251.491 235 248.4 L 235 203.6 C 235 200.509 237.509 198 240.6 198 Z" style="stroke:none;fill:#EBEBEB;stroke-miterlimit:10;"/><g><circle vector-effect="non-scaling-stroke" cx="252.50000000000023" cy="236.00000000000014" r="5" fill="rgb(0,0,0)"/><circle vector-effect="non-scaling-stroke" cx="273.5000000000002" cy="236.00000000000014" r="5" fill="rgb(0,0,0)"/><circle vector-effect="non-scaling-stroke" cx="252.50000000000023" cy="216.00000000000009" r="5.000000000000014" fill="rgb(0,0,0)"/><circle vector-effect="non-scaling-stroke" cx="273.5000000000002" cy="216.00000000000009" r="5" fill="rgb(0,0,0)"/></g></g></g></svg>
